X:211
T:Christy Barry's
T:The Butlers of Glen Avenue
M:6/8
L:1/8
R:jig
D:Kevin Crawford: D Flute Album
D:Nicolas Buckmelter: Mountain Eire
Z:Michael Abraham Shulman
N:Nicolas Buckmelter, Kira Ott
N:This is really `The Butlers of Glen Avenue'.
K:G
|:DEG EDB,|DEG B3|DEG B2e|dBe dBA|
DEG EDB,|DEG B3|dBd gfe|1 dBA G3:||2 dBa g3|
|:gab age|deg B3|gab gab|dBd e2d|
g2b age|deg B3|dBd gfe|1 dBa g3:||2 dBA G3|
